!!!COM:	Rachmaninoff, Sergei
!!!CDT:	1873/04/01–1943/03/28
!!!OTL@RU:	Bogoroditse Devo
!!!OTL@EN:	Rejoice, O Virgin
!!!OPS:	Op. 37
!!!ONM:	No. 6
!!!CNT:	N/A
**kern	**kern	**kern	**kern
*ICvox	*ICvox	*ICvox	*ICvox
*Ibass	*Itenor	*Ialto	*Isoprn
*I"Bass	*I"Tenor	*I"Alto	*I"Soprano
*clefF4	*clefGv2	*clefG2	*clefG2
*k[b-]	*k[b-]	*k[b-]	*k[b-]
*F:	*F:	*F:	*F:
*M4/4	*M4/4	*M4/4	*M4/4
=1	=1	=1	=1
4F	4c	4f	4a
4F	4c	4f	4a
=2	=2	=2	=2
4.F	2c	4.f	4.a
8C	.	8e	8g
4D	4A	4d	4f
4AA	4c	4f	4a
=3	=3	=3	=3
4.C	4.c	4.e	4.g
8D	8A	8d	8f
2C	2c	2e	2g
=4	=4	=4	=4
8FL	4c	8fL	8aL
8C	.	8e	8g
8D	8AL	8d	8f
8AAJ	8cJ	[8fJ	8aJ
8BB-L	8dL	8f]L	8gL
8DJ	8AJ	8dJ	8fJ
4C	4c	4e	4g
=5	=5	=5	=5
2F	2c	2f	2a
4F	4c	4f	4a
4E	4c	4f	8gL
.	.	.	8aJ
=6	=6	=6	=6
2.D	4d	2.f	4b-
.	4c	.	4a
.	4B-	.	4g
4C	4A	8dL	8fL
.	.	8eJ	8aJ
=7	=7	=7	=7
4D	4B-	4f	[2g
4C	4A	4e	.
8BB-L	8GL	8dL	8g]L
8AAJ	8AJ	8cJ	8eJ
4GG	4B-	8dL	8fL
.	.	8eJ	8gJ
=8	=8	=8	=8
4.D	4.A	8fL	8aL
.	.	8e	8g
.	.	8d	8f
8AA	8c	[8fJ	8aJ
8BB-L	8dL	8fL]	8gL
8DJ	8AJ	8dJ	8fJ
4C	4c	4e	4g
=9	=9	=9	=9
2F	2c	2f	2a
4F	2c	2f	2a
4D	.	.	.
=10	=10	=10	=10
4.C	2.A	4.e	2.a
8D	.	8f	.
4C	.	4e	.
4BB-	4G	4d	4g
=11	=11	=11	=11
2.AA	4.E	4.c	[1a
.	8F	8d	.
.	4E	4c	.
4GG	4D	4B-	.
=12	=12	=12	=12
4AA	4.E	4c	2.a]
2BB-	.	2d	.
.	8F	.	.
.	8GL	.	.
.	8AJ	.	.
4C	4B-	4e	4g
=13	=13	=13	=13
8FL	4c	8fL	8aL
8C	.	8e	8g
8D	8AL	8d	8f
8AAJ	8cJ	[8fJ	8aJ
8BB-L	8dL	8f]L	8gL
8DJ	8AJ	8dJ	8fJ
4C	4c	4e	4g
=14	=14	=14	=14
1F	1c	4f	1a
.	.	4f 4a	.
.	.	4f 4a	.
.	.	4f 4a	.
=15	=15	=15	=15
1r	2.c	8fL 8aL	2.cc
.	.	8e 8g	.
.	.	8d 8f	.
.	.	8fJ 8aJ	.
.	.	8eL 8gL	.
.	.	8dJ 8fJ	.
.	8AL	4e 4g	8aL
.	8B-J	.	8b-J
=16	=16	=16	=16
1r	4c	2f 2a	4cc
.	2d	.	2dd
.	.	8fL 8aL	.
.	.	8e 8g	.
.	4c	8d 8f	4cc
.	.	8fJ 8aJ	.
=17	=17	=17	=17
1r	4A	8eL 8gL	4a
.	.	8dJ 8fJ	.
.	2c	4e 4g	2cc
.	.	[2f [2a	.
.	4e	.	4ee
=18	=18	=18	=18
1r	1d	4f] 4a]	1dd
.	.	8eL 8gL	.
.	.	8fJ 8aJ	.
.	.	4g 4b-	.
.	.	8g 8b-	.
.	.	8g 8b-	.
=19	=19	=19	=19
1r	2d	8gL 8b-L	2dd
.	.	8f 8a	.
.	.	8e 8g	.
.	.	8gJ 8b-J	.
.	4d	8fL 8aL	4dd
.	.	8eJ 8gJ	.
.	8cL	4f 4a	8ccL
.	8B-J	.	8b-J
=20	=20	=20	=20
*M6/4	*M6/4	*M6/4	*M6/4
2r	4c	4f 4a	4cc
.	2d	8eL 8gL	2dd
.	.	8fJ 8aJ	.
2r	.	8gL 8b-L	.
.	.	8fJ 8aJ	.
.	4c	8eL 8gL	4cc
.	.	8gJ 8b-J	.
4r	8dL	8fL 8aL	8ddL
.	8eJ	8gJJ	8eeJ
8AL	4d 4f	8aL	4dd 4ff
8B-J	.	8b-J	.
=21	=21	=21	=21
4.c	1e 1g	4.cc	1ee 1gg
8c	.	8cc	.
8cL	.	8ccL	.
8B-	.	8b-	.
8A	.	8a	.
8cJ	.	8ccJ	.
8B-L	4d 4f	8b-L	4dd 4ff
8AJ	.	8aJ	.
[4B-	4c 4e	[4b-	4cc 4ee
=22	=22	=22	=22
4B-]	4d 4f	4b-]	4dd 4ff
8B-	4c 4e	8b-	4cc 4ee
8B-	.	8b-	.
8B-L	[8d 8dL	8b-L	[8dd 8dd
8A	8d] 8fJ	8a	8dd] 8ffJ
8G	2c 2e	8g	2cc 2ee
8B-J	.	8b-J	.
8AL	.	8aL	.
8FJ	.	8fJ	.
4G	4B- 4d	4g	4b- 4dd
=23	=23	=23	=23
4A	[4c 4f	4a	1cc
4G	4c] 4e	8a	.
.	.	8a	.
4F	8c [8d	8aL	.
.	8B- 8d]	8gJ	.
4E	4A 4c	8fL	.
.	.	8aJ	.
4D	8B-L	8gL	2cc
.	8AJ	8fJ	.
4C	4B-	4g	.
=24	=24	=24	=24
[4FF 4F	4c	[2a	1cc
[4FF] 4E	8c	.	.
.	8c	.	.
[4FF] 4D	8cL	8aL]	.
.	8B-J	8g	.
[4FF] 4E	8AL	8f	.
.	8cJ	8aJ	.
[4FF 4D	8B-L	8gL	2cc
.	8AJ	8fJ	.
4FF] 4C	4B-	4g	.
=25	=25	=25	=25
[4F	[4c	[4a	[4cc
8F]	8c}	8a]	8cc]
8r	8r	8r	8r
4F	4A [4c	4f	4a
4E	4G 4c]	4e	4g
4D	2A	4d	4f
4C	.	4e	4a
=26	=26	=26	=26
*M4/4	*M4/4	*M4/4	*M4/4
2BB-	2G	2d	2g
2AA	4F	2c	2f
.	4E	.	.
=27	=27	=27	=27
2.GG	2.D	1B-	1g
4C	4C	.	.
=28	=28	=28	=28
1FF 1C	1F	1A	1f
==	==	==	==
*-	*-	*-	*-
